X:1
T:Von der edlen Musik
T:Valentin Rathgeber Satz: Julius Röntgen
T:Von der edlen Musik
T:aus dem "Augsburger Tafelkonfekt" 1733
T:CPDL - Creative Commons Attribution Non Commercial 3.0
T:CPDL - Creative Commons Attribution Non Commercial 3.0
T:CPDL - Creative Commons Attribution Non Commercial 3.0
C:Valentin Rathgeber
Z:CPDL - Creative Commons Attribution Non Commercial 3.0
%%score [ 1 2 3 4 ]
L:1/8
Q:1/4=120
M:3/4
K:C
V:1 treble nm="S"
V:2 treble nm="A"
V:3 treble-8 nm="T"
V:4 bass nm="B"
V:1
"^Gemächlich (Tempo di Minuetto)" G2 c2 e2 | (G2 FE) F2 | F2 B2 d2 | (F2 ED) E2 | E2 D2 EG | %5
w: 1.~Der hat hin-|ge- * * ben|das e- wig|Le- * * ben,|der die Mu- *|
w: 2.~Sie kann re-|gie- * * ren,|die Her- zen|rüh- * * ren,|dass gar das _|
w: 3.~Weil dann von|al- * * lem,|was kann ge-|fal- * * len,|Mu- sik das _|
 F3 E D2 | E2 D2 EG | F3 E D2 | (3FED E2 DC | C6!fine! || G2 c2 e2 | (G2 FE) F2 | F2 B2 d2 | %13
w: sik nicht liebt|und sich be- *|stän- dig übt|in _ _ die- sem _|Spiel.|~Wer schon auf|Er- * * den|will se- lig|
w: fri- sche Blut|in A- dern _|wal- len tut|vor _ _ lau- ter _|Freud.|Schwe- ren Ge-|dan- * * ken|setzt sie die|
w: Bes- te sei,|so ei- nem _|brin- get bei|nur _ _ lau- ter _|Freud,|so will be-|stän- * * dig,|so- lang le-|
 (F2 ED) E2 | E2 D2 EG | F3 E D2 | E2 D2 EG | F3 E D2 | (3FED E2 DC | C6 || D2 G2 Ac | B3 c d2 | %22
w: wer- * * den,|der kann er- *|rei- chen hie|durch Mu- sik _|oh- ne Müh|sein _ _ ho- hes _|Ziel.|~Es gibt der _|höch- ste Gott|
w: Schran- * * ken;|das G'müt gleich _|hei- ter wird,|dass sich gar _|bald ver- liert|all _ _ Bit- ter- *|keit.|Kein Un- glück _|ist so groß,|
w: ben- * * dig,|Mu- sik stets _|lie- ben ich,|in Mu- sik _|ü- ben mich,|so _ _ mich er- *|freut.|~Fort drum Me- *|lan- cho- lei!|
 AB cA BG | ^F3 E D2 | B2 A2 Bd | c3 B A2 | B2 A2 Bd | c3 B A2 | (3cBA B2 AG | %29
w: den _ En- * geln _|dies Ge- bot:|es sin- gen _|Che- ru- bin,|es sin- gen _|Se- ra- phin|der _ _ En- gel _|
w: gibt _ sol- * chen _|Her- zens- stoß,|kein Un- stern _|drin- get ein,|und wenn's auch _|soll- te sein|das _ _ größ- te _|
w: es _ bleibt _ der _|Schluss da- bei:|Fort mit dem _|Gril- len- fang!|Der lieb- li- *|che Mu- sik-|klang _ ver- treibt all _|
[Q:1/4=120]"^rit." G6!D.C.! || %30
w: viel.|
w: Leid.|
w: Leid!|
V:2
 E2 E2 G2 | (E2 DC) D2 | D2 D2 F2 | (D2 CB,) C2 | C2 B,2 C2 | G,G, G,4 | G,2 G,2 G,C | B,3 C B,2 | %8
w: |||||sik nicht liebt|||
 DA, C2 B,C | C6 || E2 E2 G2 | (E2 DC) D2 | D2 D2 F2 | (D2 CB,) C2 | C2 B,2 C2 | G,G, G,4 | %16
w: |||||||rei- chen hie|
 G,2 G,2 G,C | B,3 C B,2 | DA, C2 B,C | C6 || B,2 D2 D2 | D3 E ^F2 | D2 D2 D2 | D3 ^C D2 | %24
w: ||||||||
 D2 D2 DG | ^F3 G F2 | G2 D2 DG | ^F3 G F2 | AE G2 ^FG | (G2 =F2 ED) || %30
w: |||* Mu- sik-|klang ver- treibt * *||
V:3
 G2 G2 c2 | G4 G2 | G2 G2 B2 | G4 G2 | G4 GG | B3 c B2 | c2 B2 cG | GG G4 | (3AGF G2 FE | E6 || %10
w: 1.~Der hat hin-|ge- ben|das e- wig|Le- ben,|der die Mu-|sik nicht liebt|und sich be- *|stän- dig übt|in _ _ die- sem _|Spiel|
w: 2.~Sie kann re-|gie- ren,|die Her- zen|rüh- ren,|dass gar das|fri- sche Blut|in A- dern _|wal- len tut|vor _ _ lau- ter _|Freud.|
w: 3.~Weil dann von|al- lem,|was kann ge-|fal- len,|Mu- sik das|Bes- te sei,|so ei- nem _|brin- get bei|nur _ _ lau- ter _|Freud,|
 G2 G2 c2 | G4 G2 | G2 G2 B2 | G4 G2 | G4 GG | B3 c B2 | c2 B2 cG | GG G4 | (3AGF G2 FE | E6 || %20
w: Wer schon auf|Er- den|will se- lig|wer- den,|der kann er-|rei- chen hie|durch Mu- sik _|oh- ne Müh|sein _ _ ho- hes _|Ziel.|
w: Schwe- ren Ge-|dan- ken|setzt sie die|Schran- ken;|das G'müt gleich|hei- ter wird,|dass sich gar _|bald ver- liert|all _ _ Bit- ter _|keit.|
w: so will be-|stän- dig,|so- lang le-|ben- dig,|Mu- sik stets|lie- ben ich,|in Mu- sik _|ü- ben mich,|so _ _ mich er- *|freut.|
 G2 G2 ^F2 | G3 G A2 | ^FG A2 G2 | A3 G ^F2 | G2 ^F2 GB | d3 d d2 | d2 ^F2 GB | d3 d d2 | %28
w: ~Es gibt der|höch- ste Gott|den _ En- geln|dies Ge- bot:|es sin- gen _|Che- ru- bin,|es sin- gen _|Se- ra- phin|
w: Kein Un- glück|ist so groß,|gibt _ sol- chen|Her- zens- stoß,|kein Un- stern _|drin- get ein,|und wenn's auch _|soll- te sein|
w: ~Fort drum Me-|lan- cho- lei!|es _ bleibt der|Schluss da- bei:|Fort mit dem _|Gril- len- fang!|Der lieb- li _|che Mu- sik-|
 (3edc d2 cB | (B2 d2 cB) || %30
w: der _ _ En- gel _|viel. _ _ _|
w: das _ _ größ- te _|Leid. _ _ _|
w: klang _ ver- treibt all _|Leid! _ _ _|
V:4
 C,2 C,2 C,2 | C,4 B,,A,, | B,,2 G,,2 G,,2 | C,4 C,2 | C,2 G,,2 C,2 | G,,3 C, D,2 | C,2 G,,2 C,E, | %7
 D,3 C, G,,2 | D,2 C,2 G,,2 | C,6 || C,2 C,2 C,2 | C,4 B,,A,, | B,,2 G,,2 G,,2 | C,4 C,2 | %14
 C,2 G,,2 C,2 | G,,3 C, D,2 | C,2 G,,2 C,E, | D,3 C, G,,2 | D,2 C,2 G,,2 | C,6 || G,,2 B,,2 D,2 | %21
 G,2 ^F,E, D,2 | D,2 ^F,,2 G,,B,, | D,3 D, D,2 | G,,2 D,2 G,2 | A,3 G, D,2 | G,,2 D,2 G,2 | %27
 A,3 G, D,2 | (3:2:2A,,2 A,, D,2 D,2 | G,,6 || %30

